icons/1_Primary/KeepSolid.svg

<svg width="1024" height="1024" fill="none" xmlns="http://www.w3.org/2000/svg"><g clip-path="url(#a)"><path d="M512 1024c282.77 0 512-229.23 512-512S794.77 0 512 0 0 229.23 0 512s229.23 512 512 512Z" fill="#54688C"/><path d="M568 422.48v11.19h179v302.14H556.76l-52.33-145.48h108.28v-11.19H500.4L476.25 512l80.52-223.82H747v134.3H568Zm-39.69 293.33-42.7-118.71-4-11.19-24.15-67.14L455 512l2.44-6.77 70.89-197 7.19-20H277v447.58h258.48l-7.19-20h.02Z" fill="#fff"/></g><defs><clipPath id="a"><path fill="#fff" d="M0 0h1024v1024H0z"/></clipPath></defs></svg>

<svg width="1024" height="1024" viewBox="0 0 1024 1024" fill="none" xmlns="http://www.w3.org/2000/svg">
<g clip-path="url(#clip0_2_2592)">
<path d="M512 1024C794.77 1024 1024 794.77 1024 512C1024 229.23 794.77 0 512 0C229.23 0 0 229.23 0 512C0 794.77 229.23 1024 512 1024Z" fill="#54688C"/>
<path d="M568 422.48V433.67H747V735.81H556.76L504.43 590.33H612.71V579.14H500.4L476.25 512L556.77 288.18H747V422.48H568ZM528.31 715.81L485.61 597.1L481.61 585.91L457.46 518.77L455 512L457.44 505.23L528.33 308.23L535.52 288.23H277V735.81H535.48L528.29 715.81H528.31Z" fill="white"/>
</g>
<defs>
<clipPath id="clip0_2_2592">
<rect width="1024" height="1024" fill="white"/>
</clipPath>
</defs>
</svg>
